X:1
T:Title
%%score { ( 1 2 ) | ( 3 4 ) }
L:1/8
Q:1/4=100
M:9/8
K:Ab
V:1 treble nm="Grand Piano"
V:2 treble 
V:3 bass 
V:4 bass 
V:1
 [Ec]2 [Ec] [DB]2 [CA] GB[CA] | z [DG]2- [DG]3[K:bass] z3 | [Gd]2 [Gd] [Gc]2 [GB] E2 d | %3
w: E.~S.~Lorenz * * * * * *|||
 c6[K:bass] A,F,E, | [Ee]2 [Ec] [DB]2 [CA] .[CG]2 [A,EA] | [A,EG] F2- F3 FGA | E c2- c3 B2 [CA] | %7
w: ||||
[M:3/4] [CA]6 |[M:3/8] EGB |[M:9/8] d-[Gd-][Gd-] [Gd][Gd][Gd] [Gd][Ge][EB] | [Ec]6 z3 | %11
w: ||||
 d-[Gd-][Gd-] [Gd][Gd][Gd] [Gd][Ge][EB] | [Ec]6 z3 | .c6 z3 | z3 .D3 FGA | E c2- c3 B2 [CA] | %16
w: |||||
 [CA]6 z3 |] %17
w: |
V:2
 z3 z3 .C3 | .[DA]3 E,3[K:bass] E,,G,,B,, | x9 | x6[K:bass] x3 | x9 | x9 | x9 |[M:3/4] x6 | %8
[M:3/8] x3 |[M:9/8] .G3 z3 z3 | x9 | .G3 z3 z3 | x9 | =EEE E[EG][EG] [EG][EB][B,EA] | [A,F]6 z3 | %15
 x9 | x9 |] %17
V:3
 [A,,A,]2 [A,,A,] [A,,E,]2 [A,,E,] [A,,E,]2 [A,,E,] | [B,,E,] [B,,E,]2 B,,3 z3 | %2
 [E,B,]2 [E,B,] [E,E]2 [E,D] [E,G,]2 [E,G,F] | [A,E]6 z3 | %4
 [C,A,]2 [A,,A,] [A,,E,]2 [A,,E,] z[K:treble] B[K:bass]C, | %5
 D, [D,A,D]2- [D,A,D]3 [=D,A,_C][D,G,C][D,F,C] | [E,A,C] [E,A,E]2- [E,A,E]3 [E,G,D]2 [A,,A,] | %7
[M:3/4] [A,,A,]6 |[M:3/8] z3 |[M:9/8] [E,B,][E,B,][E,B,] [E,B,][E,B,][E,B,] [E,B,][E,B,][E,B,] | %10
 A,-[C,A,-][E,A,] .A,3[K:treble] EGB | [E,B,][E,B,][E,B,] [E,B,][E,B,][E,B,] [E,B,][E,B,][E,G,] | %12
 A,-[C,A,-][E,A,] .A,3[K:treble] ccc | [C,G,][C,G,][C,G,] [C,G,][C,C][C,C] [C,C][C,G,]C, | %14
 D,D,D, .D,3 [=D,A,_C][D,G,C][D,F,C] | [E,A,C] [E,A,E]2- [E,A,E]3 [E,G,D]2 [A,,A,] | [A,,A,]6 z3 |] %17
V:4
 x9 | x9 | x9 | x9 | z3 z3 .[A,,E,]3[K:treble][K:bass] | x9 | x9 |[M:3/4] x6 |[M:3/8] x3 | %9
[M:9/8] x9 | .A,,3 z3[K:treble] z3 | x9 | .A,,3 z3[K:treble] z3 | x9 | x9 | x9 | x9 |] %17

